X:1
T: The Joys of Wedlock
P:Roche version
R:Jig
Q:180
K:G
M:6/8
L:1/16
|:E2|D2G2G2 G2B2d2|g2f2e2 d4c2|B2d2g2 d2B2G2|F2A2A2 A4B2|
D2G2G2 G2B2d2|g2f2e2 d4c2|Bcd2B2 c2A2F2|A2A2A2 G4:|
|:c2|B2d2g2 d2B2G2|B2d2g2 d4c2|B2d2g2 d2B2G2|F2A2A2 A4c2|
B2d2g2 d2B2G2|B2d2g2 d4c2|Bcd2B2 c2A2F2|A2G2G2 G4:|
